public/assests/icons/cofee.svg

<svg width="16" height="25" viewBox="0 0 16 25" fill="none" xmlns="http://www.w3.org/2000/svg">
<path d="M15.0011 7.14409C15.0225 7.00205 15.013 6.85707 14.9733 6.71902C14.9336 6.58098 14.8647 6.4531 14.7711 6.34409C14.6752 6.23486 14.5566 6.14785 14.4236 6.08913C14.2907 6.03041 14.1465 6.00139 14.0011 6.00409V4.00409C14.0011 3.73888 13.8958 3.48452 13.7082 3.29699C13.5207 3.10945 13.2663 3.00409 13.0011 3.00409H11.0011V2.41409L11.7111 1.71409C11.8994 1.52579 12.0052 1.27039 12.0052 1.00409C12.0052 0.73779 11.8994 0.482395 11.7111 0.294092C11.5228 0.105788 11.2674 0 11.0011 0C10.7348 0 10.4794 0.105788 10.2911 0.294092L9.29113 1.29409C9.19845 1.38753 9.12512 1.49835 9.07536 1.62019C9.02559 1.74202 9.00037 1.87249 9.00113 2.00409V3.00409H2.00113C1.73591 3.00409 1.48156 3.10945 1.29402 3.29699C1.10648 3.48452 1.00113 3.73888 1.00113 4.00409V6.00409C0.857459 6.00284 0.715207 6.03256 0.584059 6.09124C0.452911 6.14991 0.335946 6.23615 0.241127 6.34409C0.147582 6.4531 0.0786194 6.58098 0.0389305 6.71902C-0.000758417 6.85707 -0.0102411 7.00205 0.0111271 7.14409L2.01113 21.0741V24.0041C2.01113 24.2693 2.11648 24.5237 2.30402 24.7112C2.49156 24.8987 2.74591 25.0041 3.01113 25.0041H12.0111C12.2763 25.0041 12.5307 24.8987 12.7182 24.7112C12.9058 24.5237 13.0111 24.2693 13.0111 24.0041V21.0741L15.0011 7.14409ZM2.15113 8.00409H12.8511L11.1311 20.0041H3.87113L2.15113 8.00409ZM3.00113 5.00409H12.0011V6.00409H3.00113V5.00409ZM11.0011 23.0041H4.00113V22.0041H11.0011V23.0041Z" fill="#FFB577"/>
</svg>

<svg width="16" height="25" fill="none" xmlns="http://www.w3.org/2000/svg"><path d="M15.0011 7.144a.9993.9993 0 0 0-.23-.8.9998.9998 0 0 0-.77-.34v-2a.9997.9997 0 0 0-1-1h-2v-.59l.71-.7a1.0041 1.0041 0 1 0-1.42-1.42l-1 1a1 1 0 0 0-.29.71v1h-7a1 1 0 0 0-1 1v2a.9999.9999 0 0 0-.76.34 1 1 0 0 0-.23.8l2 13.9301v2.93a1 1 0 0 0 1 1h9a1.0001 1.0001 0 0 0 1-1v-2.93l1.99-13.93Zm-12.85.86h10.7l-1.72 12.0001h-7.26l-1.72-12Zm.85-3h9v1h-9v-1Zm8 18.0001h-7v-1h7v1Z" fill="#FFB577"/></svg>
